X: 2
T: the Crow In Sun
T: Crow In the Sun
C: Daithi Sproule (2006?)
M: 4/4
L: 1/8
Q: 150
R: Slow Air
Z: Frederick Faller (with edits by John Chambers)
F: fredmusic1.ABC
D: Liz Caroll, "Lost in the Loop"
K: F
|: FG |\
A2cA BAG>F | D2{D}C2 A,3F/G/ | A3c dcBA | ABG2 G2G>A |
BFBc dc d<e | fcfa g2fe | dcfc BA G>F | D2 E2 F2 :|
|: zf |\
d<c fc {d}c2 Ac | {d}c2 fa g3g/a/ | bd g<b ac f<a | gfed c2 (3cde |
dcBA c2 (3FGA | BA G>F D2 C>B, | A,CFA G<B E<G | F6 :|
